places/scalable/user-bluegrey-home.svg

<svg xmlns="http://www.w3.org/2000/svg" width="256" height="256" style="isolation:isolate"><path fill="#455A64" d="M53.039 21C16.724 21 13 23.055 13 59.371v52.167h230V79.563c0-36.316-3.724-42.102-40.039-42.102h-89.336L97.198 21H53.039z"/><path fill="#78909C" d="M53.039 70.384C16.722 70.384 13 74.114 13 110.429v84.524C13 231.269 16.722 235 53.039 235h149.922c36.317 0 40.039-3.731 40.039-40.047V93.969c0-36.316-3.722-40.047-40.039-40.047H119.53l-16.438 16.462H53.039z"/><linearGradient id="a" x2="0" y1=".5" y2="-.5" gradientTransform="matrix(230 0 0 181.078 13 53.922)" gradientUnits="userSpaceOnUse"><stop offset="0%" stop-opacity=".07" stop-color="#fff"/><stop offset="67.282%" stop-opacity="0" stop-color="#fcefe8"/></linearGradient><path fill="url(#a)" d="M53.039 70.384C16.722 70.384 13 74.114 13 110.429v84.524C13 231.269 16.722 235 53.039 235h149.922c36.317 0 40.039-3.731 40.039-40.047V93.969c0-36.316-3.722-40.047-40.039-40.047H119.53l-16.438 16.462H53.039z"/><g opacity=".4"><radialGradient id="b" cx=".5" cy=".5" r=".272" fx=".5" fy=".136" gradientTransform="matrix(230 0 0 60.62 13 21)" gradientUnits="userSpaceOnUse"><stop offset="0%" stop-color="#fff"/><stop offset="100%" stop-opacity=".204" stop-color="#fff"/></radialGradient><path fill="url(#b)" d="M53.039 21C16.724 21 13 23.055 13 59.371v2.059c0-36.316 3.724-38.373 40.039-38.373h44.159l16.427 16.461h89.336c36.315 0 40.039 5.786 40.039 42.102v-2.057c0-36.316-3.724-42.102-40.039-42.102h-89.336L97.198 21H53.039z"/></g><g opacity=".4"><radialGradient id="c" cx=".5" cy=".5" r=".272" fx=".482" fy=".211" gradientTransform="matrix(230 0 0 58.565 13 53.922)" gradientUnits="userSpaceOnUse"><stop offset="0%" stop-color="#fff"/><stop offset="100%" stop-opacity=".204" stop-color="#fff"/></radialGradient><path fill="url(#c)" d="M119.53 53.922l-16.438 16.462H53.039C16.724 70.384 13 74.112 13 110.427v2.06c0-36.316 3.724-40.046 40.039-40.046h50.053l16.438-16.46h83.431c36.315 0 40.039 3.727 40.039 40.043v-2.057c0-36.316-3.724-40.045-40.039-40.045H119.53z"/></g><path fill="#FFF" d="M243 167.096l-65.715 65.845h25.676c36.315 0 40.039-3.727 40.039-40.043v-25.802z" opacity=".1"/><path d="M123.334 204.799H86.015l-.012-60.429 41.996-43.143 41.999 43.145V209.5h4.681l-.013-60.334 9.996 10.269 3.338-3.283L128.001 94.5 68 156.152l3.338 3.283 9.997-10.27V209.5h65.331v-33.631c0-1.977-.185-3.786-.556-5.428-.37-1.641-1.018-3.04-1.944-4.197-.889-1.193-2.092-2.107-3.611-2.742-1.518-.671-3.426-1.007-5.722-1.007-2.555 0-4.814.168-6.777.504-1.963.336-3.537.653-4.722.951v40.849zm51.331-75.207V115.49h-14.012l14.012 14.102z" fill-rule="evenodd" fill="#CFD8DC" opacity=".62"/><path d="M13 192.898v2.057C13 231.271 16.724 235 53.039 235h149.922c36.315 0 40.039-3.729 40.039-40.045v-2.057c0 36.316-3.724 40.043-40.039 40.043H53.039c-36.315 0-40.039-3.727-40.039-40.043z" opacity=".2"/></svg>

<?xml version="1.0" standalone="no"?>
<!--Generator: Gravit.io-->
<svg xmlns="http://www.w3.org/2000/svg" 
    xmlns:xlink="http://www.w3.org/1999/xlink" width="256" height="256" style="isolation:isolate" viewBox="0 0 256 256">
    <switch>
        <g>
            <g id="folder">
                <path id="orange" fill="#455A64" d=" M 53.039 21 C 16.724 21 13 23.055 13 59.371 L 13 111.538 L 243 111.538 L 243 79.563 C 243 43.247 239.276 37.461 202.961 37.461 L 113.625 37.461 L 97.198 21 L 53.039 21 Z "/>
                <path id="change-color-easy" fill="#78909C" d=" M 53.039 70.384 C 16.722 70.384 13 74.114 13 110.429 L 13 194.953 C 13 231.269 16.722 235 53.039 235 L 202.961 235 C 239.278 235 243 231.269 243 194.953 L 243 93.969 C 243 57.653 239.278 53.922 202.961 53.922 L 119.53 53.922 L 103.092 70.384 L 53.039 70.384 Z "/>
                <linearGradient id="_lgradient_1" x1="0" x2="2.83276944882399e-16" y1="0.5" y2="-0.5" gradientTransform="matrix(230,0,0,181.078,13,53.922)" gradientUnits="userSpaceOnUse">
                    <stop offset="0%" stop-opacity="0.07" style="stop-color:rgb(255,255,255)"/>
                    <stop offset="67.28219512106674%" stop-opacity="0" style="stop-color:rgb(252,239,232)"/>
                </linearGradient>
                <path id="gradient white" fill="url(#_lgradient_1)" d=" M 53.039 70.384 C 16.722 70.384 13 74.114 13 110.429 L 13 194.953 C 13 231.269 16.722 235 53.039 235 L 202.961 235 C 239.278 235 243 231.269 243 194.953 L 243 93.969 C 243 57.653 239.278 53.922 202.961 53.922 L 119.53 53.922 L 103.092 70.384 L 53.039 70.384 Z "/>
                <g opacity="0.4">
                    <radialGradient id="_rgradient_1" cx="0.5" cy="0.5" r="0.27154159375000003" fx="0.5000000213726793" fy="0.13577386516315215" gradientTransform="matrix(230,0,0,60.62,13,21)" gradientUnits="userSpaceOnUse">
                        <stop offset="0%" stop-opacity="1" style="stop-color:rgb(255,255,255)"/>
                        <stop offset="100%" stop-opacity="0.20392157" style="stop-color:rgb(255,255,255)"/>
                    </radialGradient>
                    <path id="white" fill="url(#_rgradient_1)" d=" M 53.039 21 C 16.724 21 13 23.055 13 59.371 L 13 61.43 C 13 25.114 16.724 23.057 53.039 23.057 L 97.198 23.057 L 113.625 39.518 L 202.961 39.518 C 239.276 39.518 243 45.304 243 81.62 L 243 79.563 C 243 43.247 239.276 37.461 202.961 37.461 L 113.625 37.461 L 97.198 21 L 53.039 21 Z "/>
                </g>
                <g opacity="0.4">
                    <radialGradient id="_rgradient_2" cx="0.5" cy="0.5" r="0.27154159375" fx="0.48214287810452355" fy="0.2108154047287485" gradientTransform="matrix(230,0,0,58.565,13,53.922)" gradientUnits="userSpaceOnUse">
                        <stop offset="0%" stop-opacity="1" style="stop-color:rgb(255,255,255)"/>
                        <stop offset="100%" stop-opacity="0.20392157" style="stop-color:rgb(255,255,255)"/>
                    </radialGradient>
                    <path id="white" fill="url(#_rgradient_2)" d=" M 119.53 53.922 L 103.092 70.384 L 53.039 70.384 C 16.724 70.384 13 74.112 13 110.427 L 13 112.487 C 13 76.171 16.724 72.441 53.039 72.441 L 103.092 72.441 L 119.53 55.981 L 202.961 55.981 C 239.276 55.981 243 59.708 243 96.024 L 243 93.967 C 243 57.651 239.276 53.922 202.961 53.922 L 119.53 53.922 Z "/>
                </g>
                <g opacity="0.1">
                    <path id="white" fill="rgb(255,255,255)" d=" M 243 167.096 L 177.285 232.941 L 202.961 232.941 C 239.276 232.941 243 229.214 243 192.898 L 243 167.096 Z "/>
                </g>
                <g opacity="0.62">
                    <path d=" M 123.334 204.799 L 86.015 204.799 L 86.003 144.37 L 86.003 144.37 L 86.003 144.37 L 127.999 101.227 L 169.998 144.372 L 169.998 209.5 L 174.679 209.5 L 174.666 149.166 L 174.666 149.166 L 184.662 159.435 L 188 156.152 L 128.001 94.5 L 68 156.152 L 71.338 159.435 L 81.335 149.165 L 81.335 209.5 L 142 209.5 L 142 209.5 L 146.666 209.5 L 146.666 175.869 C 146.666 173.892 146.481 172.083 146.11 170.441 C 145.74 168.8 145.092 167.401 144.166 166.244 C 143.277 165.051 142.074 164.137 140.555 163.502 C 139.037 162.831 137.129 162.495 134.833 162.495 C 132.278 162.495 130.019 162.663 128.056 162.999 C 126.093 163.335 124.519 163.652 123.334 163.95 L 123.334 204.799 Z  M 174.665 129.592 L 174.665 115.49 L 160.653 115.49 L 174.665 129.592 L 174.665 129.592 L 174.665 129.592 Z " fill-rule="evenodd" id="user-home" fill="#CFD8DC"/>
                </g>
                <g opacity="0.2">
                    <path id="dark" fill="rgb(0,0,0)" d=" M 13 192.898 L 13 194.955 C 13 231.271 16.724 235 53.039 235 L 202.961 235 C 239.276 235 243 231.271 243 194.955 L 243 192.898 C 243 229.214 239.276 232.941 202.961 232.941 L 53.039 232.941 C 16.724 232.941 13 229.214 13 192.898 Z "/>
                </g>
            </g>
        </g>
    </switch>
</svg>
